X:1
T:Bold Thady Quill
R:jig
M:6/8
L:1/8
K:A
|:efc ecB|AEE Ace|aga fec|cBA ~B2a|
|efc ecB|AEE Ace|aba fec|BAG ~A2e:|
|:efg aga|~b2a afe|aba fec|cBA ~B2a|
|efc ecB|AEE Ace|aba fec|BAG ~A2e:|